public/upstash.svg

<svg width="512" height="153" viewBox="0 0 512 153" fill="none" xmlns="http://www.w3.org/2000/svg">
<g clip-path="url(#clip0_1068_12)">
<path d="M0 133.753C25.348 159.101 66.446 159.101 91.794 133.753C117.142 108.405 117.142 67.308 91.794 41.96L80.319 53.434C99.331 72.444 99.331 103.268 80.319 122.279C61.309 141.29 30.485 141.29 11.474 122.279L0 133.753Z" fill="#00C98D"/>
<path d="M22.949 110.805C35.623 123.479 56.171 123.479 68.845 110.805C81.519 98.131 81.519 77.582 68.845 64.908L57.371 76.382C63.708 82.719 63.708 92.993 57.371 99.331C51.034 105.668 40.76 105.668 34.423 99.331L22.949 110.805ZM114.742 19.011C89.394 -6.337 48.296 -6.337 22.948 19.011C-2.39999 44.359 -2.39899 85.457 22.949 110.805L34.422 99.33C15.412 80.319 15.412 49.495 34.422 30.484C53.433 11.474 84.256 11.474 103.267 30.484L114.742 19.011Z" fill="#00C98D"/>
<path d="M91.7939 41.9601C79.1199 29.2861 58.5699 29.2861 45.8959 41.9601C33.2219 54.6341 33.2219 75.1821 45.8959 87.8561L57.3709 76.3821C51.0339 70.0451 51.0339 59.7711 57.3709 53.4341C63.7079 47.0971 73.9809 47.0971 80.3189 53.4341L91.7939 41.9601Z" fill="#00C98D"/>
<path d="M114.742 19.011C89.394 -6.337 48.296 -6.337 22.948 19.011C-2.39999 44.359 -2.39999 85.457 22.948 110.805L34.422 99.33C15.412 80.319 15.412 49.495 34.422 30.484C53.433 11.474 84.256 11.474 103.267 30.484L114.742 19.011Z" fill="white" fill-opacity="0.4"/>
<path d="M91.7939 41.9601C79.1199 29.2861 58.5699 29.2861 45.8959 41.9601C33.2219 54.6341 33.2219 75.1821 45.8959 87.8561L57.3709 76.3821C51.0339 70.0451 51.0339 59.7711 57.3709 53.4341C63.7079 47.0971 73.9809 47.0971 80.3189 53.4341L91.7939 41.9601Z" fill="white" fill-opacity="0.4"/>
<path d="M190.729 85.4632C190.729 93.5532 184.955 97.5642 179.423 97.5642C173.407 97.5642 169.397 93.3122 169.397 86.5702V54.6922H156.88V88.5062C156.88 101.264 164.141 108.49 174.583 108.49C182.535 108.49 188.136 104.306 190.556 98.3602H191.109V107.798H203.245V54.6922H190.73L190.729 85.4632ZM214.169 127.713H226.684V99.4312H227.203C229.173 103.304 233.288 108.731 242.415 108.731C254.932 108.731 264.301 98.8092 264.301 81.3142C264.301 63.6122 254.655 54.0002 242.381 54.0002C233.011 54.0002 229.104 59.6362 227.203 63.4742H226.477V54.6922H214.168L214.169 127.713ZM226.442 81.2452C226.442 70.9422 230.868 64.2692 238.923 64.2692C247.256 64.2692 251.543 71.3572 251.543 81.2452C251.543 91.2032 247.187 98.4632 238.923 98.4632C230.937 98.4632 226.442 91.5482 226.442 81.2452ZM315.046 68.7292C313.317 59.7392 306.126 54.0002 293.678 54.0002C280.886 54.0002 272.173 60.2932 272.208 70.1122C272.173 77.8572 276.945 82.9742 287.144 85.0822L296.202 86.9842C301.077 88.0562 303.359 90.0272 303.359 93.0352C303.359 96.6652 299.418 99.3972 293.471 99.3972C287.731 99.3972 283.998 96.9072 282.926 92.1362L270.721 93.3122C272.277 103.062 280.471 108.836 293.506 108.836C306.782 108.836 316.152 101.956 316.186 91.8942C316.152 84.3222 311.277 79.6892 301.25 77.5112L292.192 75.5752C286.798 74.3652 284.655 72.4982 284.689 69.4212C284.655 65.8252 288.631 63.3352 293.851 63.3352C299.625 63.3352 302.668 66.4822 303.636 69.9742L315.046 68.7292ZM351.076 54.6922H340.604V41.9682H328.086V54.6922H320.549V64.3722H328.086V93.9002C328.018 103.893 335.278 108.802 344.683 108.525C348.243 108.422 350.697 107.73 352.047 107.281L349.937 97.4962C349.247 97.6692 347.828 97.9802 346.274 97.9802C343.126 97.9802 340.604 96.8742 340.604 91.8262V64.3732H351.077L351.076 54.6922ZM374.882 108.87C383.212 108.87 388.192 104.963 390.472 100.503H390.888V107.798H402.922V72.2562C402.922 58.2182 391.476 54.0002 381.347 54.0002C370.179 54.0002 361.605 58.9802 358.837 68.6602L370.523 70.3202C371.77 66.6902 375.294 63.5772 381.415 63.5772C387.225 63.5772 390.405 66.5512 390.405 71.7712V71.9792C390.405 75.5752 386.637 75.7482 377.267 76.7502C366.963 77.8572 357.11 80.9342 357.11 92.8972C357.11 103.338 364.75 108.87 374.882 108.87ZM378.131 99.6732C372.909 99.6732 369.176 97.2882 369.176 92.6892C369.176 87.8832 373.36 85.8782 378.961 85.0832C382.246 84.6332 388.814 83.8032 390.441 82.4902V88.7482C390.441 94.6602 385.666 99.6732 378.131 99.6732ZM455.533 68.7292C453.803 59.7392 446.612 54.0002 434.166 54.0002C421.372 54.0002 412.658 60.2932 412.694 70.1122C412.658 77.8572 417.432 82.9742 427.629 85.0822L436.691 86.9842C441.565 88.0562 443.847 90.0272 443.847 93.0352C443.847 96.6652 439.903 99.3972 433.957 99.3972C428.217 99.3972 424.485 96.9072 423.414 92.1362L411.208 93.3122C412.762 103.062 420.957 108.836 433.994 108.836C447.267 108.836 456.64 101.956 456.672 91.8942C456.64 84.3222 451.762 79.6892 441.737 77.5112L432.679 75.5752C427.285 74.3652 425.14 72.4982 425.176 69.4212C425.14 65.8252 429.116 63.3352 434.338 63.3352C440.111 63.3352 443.155 66.4822 444.122 69.9742L455.533 68.7292ZM477.563 76.6812C477.563 69.0062 482.333 64.5802 489.042 64.5802C495.611 64.5802 499.482 68.7642 499.482 75.9202V107.798H512V73.9852C512 61.1572 504.737 54.0002 493.709 54.0002C485.55 54.0002 480.364 57.7002 477.907 63.7162H477.287V36.9902H465.046V107.798H477.563V76.6812Z" fill="white"/>
</g>
<defs>
<clipPath id="clip0_1068_12">
<rect width="512" height="153" fill="white"/>
</clipPath>
</defs>
</svg>

<svg xmlns="http://www.w3.org/2000/svg" width="512" height="153" fill="none"><g clip-path="url(#a)"><path fill="#00C98D" d="M0 133.753c25.348 25.348 66.446 25.348 91.794 0s25.348-66.445 0-91.793L80.319 53.434c19.012 19.01 19.012 49.834 0 68.845-19.01 19.011-49.834 19.011-68.845 0z"/><path fill="#00C98D" d="M22.949 110.805c12.674 12.674 33.222 12.674 45.896 0s12.674-33.223 0-45.897L57.371 76.382c6.337 6.337 6.337 16.611 0 22.949-6.337 6.337-16.611 6.337-22.948 0zm91.793-91.794c-25.348-25.348-66.446-25.348-91.794 0s-25.347 66.446.001 91.794L34.422 99.33c-19.01-19.011-19.01-49.835 0-68.846 19.011-19.01 49.834-19.01 68.845 0z"/><path fill="#00C98D" d="M91.794 41.96c-12.674-12.674-33.224-12.674-45.898 0s-12.674 33.222 0 45.896L57.37 76.382c-6.337-6.337-6.337-16.61 0-22.948 6.337-6.337 16.61-6.337 22.948 0z"/><path fill="#fff" fill-opacity=".4" d="M114.742 19.011c-25.348-25.348-66.446-25.348-91.794 0s-25.348 66.446 0 91.794L34.422 99.33c-19.01-19.011-19.01-49.835 0-68.846 19.011-19.01 49.834-19.01 68.845 0z"/><path fill="#fff" fill-opacity=".4" d="M91.794 41.96c-12.674-12.674-33.224-12.674-45.898 0s-12.674 33.222 0 45.896L57.37 76.382c-6.337-6.337-6.337-16.61 0-22.948 6.337-6.337 16.61-6.337 22.948 0z"/><path fill="#fff" d="M190.729 85.463c0 8.09-5.774 12.101-11.306 12.101-6.016 0-10.026-4.252-10.026-10.994V54.692H156.88v33.814c0 12.758 7.261 19.984 17.703 19.984 7.952 0 13.553-4.184 15.973-10.13h.553v9.438h12.136V54.692H190.73zm23.44 42.25h12.515V99.431h.519c1.97 3.873 6.085 9.3 15.212 9.3 12.517 0 21.886-9.922 21.886-27.417 0-17.702-9.646-27.314-21.92-27.314-9.37 0-13.277 5.636-15.178 9.474h-.726v-8.782h-12.309zm12.273-46.468c0-10.303 4.426-16.976 12.481-16.976 8.333 0 12.62 7.088 12.62 16.976 0 9.958-4.356 17.218-12.62 17.218-7.986 0-12.481-6.915-12.481-17.218m88.604-12.516C313.317 59.74 306.126 54 293.678 54c-12.792 0-21.505 6.293-21.47 16.112-.035 7.745 4.737 12.862 14.936 14.97l9.058 1.902c4.875 1.072 7.157 3.043 7.157 6.051 0 3.63-3.941 6.362-9.888 6.362-5.74 0-9.473-2.49-10.545-7.26l-12.205 1.175c1.556 9.75 9.75 15.524 22.785 15.524 13.276 0 22.646-6.88 22.68-16.942-.034-7.572-4.909-12.205-14.936-14.383l-9.058-1.936c-5.394-1.21-7.537-3.077-7.503-6.154-.034-3.596 3.942-6.086 9.162-6.086 5.774 0 8.817 3.147 9.785 6.64zm36.03-14.037h-10.472V41.968h-12.518v12.724h-7.537v9.68h7.537V93.9c-.068 9.993 7.192 14.902 16.597 14.625 3.56-.103 6.014-.795 7.364-1.244l-2.11-9.785c-.69.173-2.109.484-3.663.484-3.148 0-5.67-1.106-5.67-6.154V64.373h10.473zm23.806 54.178c8.33 0 13.31-3.907 15.59-8.367h.416v7.295h12.034V72.256c0-14.038-11.446-18.256-21.575-18.256-11.168 0-19.742 4.98-22.51 14.66l11.686 1.66c1.247-3.63 4.771-6.743 10.892-6.743 5.81 0 8.99 2.974 8.99 8.194v.208c0 3.596-3.768 3.77-13.138 4.771-10.304 1.107-20.157 4.184-20.157 16.147 0 10.441 7.64 15.973 17.772 15.973m3.249-9.197c-5.222 0-8.955-2.385-8.955-6.984 0-4.806 4.184-6.81 9.785-7.606 3.285-.45 9.853-1.28 11.48-2.593v6.258c0 5.912-4.775 10.925-12.31 10.925m77.402-30.944C453.803 59.74 446.612 54 434.166 54c-12.794 0-21.508 6.293-21.472 16.112-.036 7.745 4.738 12.862 14.935 14.97l9.062 1.902c4.874 1.072 7.156 3.043 7.156 6.051 0 3.63-3.944 6.362-9.89 6.362-5.74 0-9.472-2.49-10.543-7.26l-12.206 1.175c1.554 9.75 9.749 15.524 22.786 15.524 13.273 0 22.646-6.88 22.678-16.942-.032-7.572-4.91-12.205-14.935-14.383l-9.058-1.936c-5.394-1.21-7.539-3.077-7.503-6.154-.036-3.596 3.94-6.086 9.162-6.086 5.773 0 8.817 3.147 9.784 6.64zm22.03 7.952c0-7.675 4.77-12.1 11.479-12.1 6.569 0 10.44 4.183 10.44 11.34v31.877H512V73.985C512 61.157 504.737 54 493.709 54c-8.159 0-13.345 3.7-15.802 9.716h-.62V36.99h-12.241v70.808h12.517z"/></g><defs><clipPath id="a"><path fill="#fff" d="M0 0h512v153H0z"/></clipPath></defs></svg>
